public/news.svg

<?xml version="1.0" encoding="UTF-8"?>
<svg width="24px" height="24px" viewBox="0 0 24 24" version="1.1" xmlns="http://www.w3.org/2000/svg" xmlns:xlink="http://www.w3.org/1999/xlink">
    <!-- Generator: sketchtool 58 (101010) - https://sketch.com -->
    <title>BEA8903D-B8AB-4441-92A3-98B6E8433880</title>
    <desc>Created with sketchtool.</desc>
    <defs>
        <radialGradient cx="50%" cy="0%" fx="50%" fy="0%" r="100%" id="radialGradient-1">
            <stop stop-color="#FD9D00" offset="0%"></stop>
            <stop stop-color="#FA6400" offset="100%"></stop>
        </radialGradient>
        <radialGradient cx="50%" cy="0%" fx="50%" fy="0%" r="100%" gradientTransform="translate(0.500000,0.000000),scale(0.243902,1.000000),rotate(90.000000),translate(-0.500000,-0.000000)" id="radialGradient-2">
            <stop stop-color="#FD9D00" offset="0%"></stop>
            <stop stop-color="#FA6400" offset="100%"></stop>
        </radialGradient>
        <radialGradient cx="50%" cy="0%" fx="50%" fy="0%" r="100%" gradientTransform="translate(0.500000,0.000000),scale(0.140845,1.000000),rotate(90.000000),translate(-0.500000,-0.000000)" id="radialGradient-3">
            <stop stop-color="#FD9D00" offset="0%"></stop>
            <stop stop-color="#FA6400" offset="100%"></stop>
        </radialGradient>
    </defs>
    <g id="Home" stroke="none" stroke-width="1" fill="none" fill-rule="evenodd">
        <g id="1.A.op1.-Home" transform="translate(-148.000000, -270.000000)" fill-rule="nonzero">
            <g id="newspaper-(1)" transform="translate(148.000000, 270.000000)">
                <path d="M22.8348061,5.89876247 L18.6214325,5.89876247 L18.6214325,0.84269446 C18.6214325,0.37727945 18.2441531,0 17.778738,0 L0.925194462,0 C0.459779452,0 0.0825000018,0.37727945 0.0825000018,0.84269446 L0.0825000018,20.224272 C0.0825000018,22.0858827 1.5916178,23.5950005 3.45322847,23.5950005 L20.306772,23.5950005 C22.1683827,23.5950005 23.6775005,22.0858827 23.6775005,20.224272 L23.6775005,6.74140756 C23.6775005,6.27604192 23.3002211,5.89876247 22.8348061,5.89876247 Z M3.45322847,21.9096116 C2.52244782,21.9096116 1.76788892,21.1550527 1.76788892,20.224272 L1.76788892,1.68533955 L16.936093,1.68533955 L16.936093,20.224272 C16.9381174,20.4274035 16.958707,20.6299425 16.997615,20.8293214 C17.0060583,20.877364 17.0152915,20.9245671 17.0262529,20.9717208 C17.0678766,21.1626072 17.1259424,21.3495434 17.1998578,21.5304065 C17.1998578,21.5388497 17.208301,21.5464042 17.2116585,21.5540081 C17.263503,21.6759659 17.3226057,21.7947144 17.3886209,21.9096116 L3.45322847,21.9096116 Z M21.9921116,20.224272 C21.9921116,21.1550527 21.2375527,21.9096116 20.306772,21.9096116 C19.3759914,21.9096116 18.6214325,21.1550527 18.6214325,20.224272 L18.6214325,7.58410202 L21.992161,7.58410202 L21.992161,20.224272 L21.9921116,20.224272 Z" id="Shape" fill="url(#radialGradient-1)"></path>
                <path d="M11.9418629,4.29000009 L6.86813754,4.29000009 C6.40109715,4.29000009 6.02250013,4.65935763 6.02250013,5.11500011 C6.02250013,5.57064259 6.40109715,5.94000013 6.86813754,5.94000013 L11.9418629,5.94000013 C12.4089033,5.94000013 12.7875003,5.57064259 12.7875003,5.11500011 C12.7875003,4.65935763 12.4089033,4.29000009 11.9418629,4.29000009 Z" id="Path" fill="url(#radialGradient-2)"></path>
                <path d="M14.4257006,8.41500018 L4.38429982,8.41500018 C3.92214043,8.41500018 3.54750008,8.78435772 3.54750008,9.2400002 C3.54750008,9.69564268 3.92214043,10.0650002 4.38429982,10.0650002 L14.4257006,10.0650002 C14.88786,10.0650002 15.2625003,9.69564268 15.2625003,9.2400002 C15.2625003,8.78435772 14.88786,8.41500018 14.4257006,8.41500018 Z" id="Path" fill="url(#radialGradient-3)"></path>
                <path d="M14.4257006,11.8800003 L4.38429982,11.8800003 C3.92214043,11.8800003 3.54750008,12.2493578 3.54750008,12.7050003 C3.54750008,13.1606428 3.92214043,13.5300003 4.38429982,13.5300003 L14.4257006,13.5300003 C14.88786,13.5300003 15.2625003,13.1606428 15.2625003,12.7050003 C15.2625003,12.2493578 14.88786,11.8800003 14.4257006,11.8800003 Z" id="Path" fill="url(#radialGradient-3)"></path>
                <path d="M14.4257006,15.1800003 L4.38429982,15.1800003 C3.92214043,15.1800003 3.54750008,15.5493579 3.54750008,16.0050003 C3.54750008,16.4606428 3.92214043,16.8300004 4.38429982,16.8300004 L14.4257006,16.8300004 C14.88786,16.8300004 15.2625003,16.4606428 15.2625003,16.0050003 C15.2625003,15.5493579 14.88786,15.1800003 14.4257006,15.1800003 Z" id="Path" fill="url(#radialGradient-3)"></path>
                <path d="M14.4257006,18.4800004 L4.38429982,18.4800004 C3.92214043,18.4800004 3.54750008,18.8493688 3.54750008,19.3050246 C3.54750008,19.7606804 3.92218946,20.1300004 4.38429982,20.1300004 L14.4257006,20.1300004 C14.88786,20.1300004 15.2625003,19.7606321 15.2625003,19.3049762 C15.2625003,18.8493204 14.88786,18.4800004 14.4257006,18.4800004 Z" id="Path" fill="url(#radialGradient-3)"></path>
            </g>
        </g>
    </g>
</svg>

<svg xmlns="http://www.w3.org/2000/svg" width="24" height="24" viewBox="0 0 24 24">
    <defs>
        <radialGradient id="a" cy="0%" r="100%" fx="50%" fy="0%">
            <stop offset="0%" stop-color="#FD9D00"/>
            <stop offset="100%" stop-color="#FA6400"/>
        </radialGradient>
        <radialGradient id="b" cy="0%" r="100%" fx="50%" fy="0%" gradientTransform="matrix(0 1 -.2439 0 .5 -.5)">
            <stop offset="0%" stop-color="#FD9D00"/>
            <stop offset="100%" stop-color="#FA6400"/>
        </radialGradient>
        <radialGradient id="c" cy="0%" r="100%" fx="50%" fy="0%" gradientTransform="matrix(0 1 -.14084 0 .5 -.5)">
            <stop offset="0%" stop-color="#FD9D00"/>
            <stop offset="100%" stop-color="#FA6400"/>
        </radialGradient>
    </defs>
    <g fill="none" fill-rule="nonzero">
        <path fill="url(#a)" d="M22.835 5.899H18.62V.843A.843.843 0 0 0 17.78 0H.925a.843.843 0 0 0-.842.843v19.381a3.37 3.37 0 0 0 3.37 3.371h16.854a3.37 3.37 0 0 0 3.37-3.37V6.74a.843.843 0 0 0-.842-.842zM3.453 21.909c-.93 0-1.685-.754-1.685-1.685V1.685h15.168v18.54a3.332 3.332 0 0 0 .09.747c.042.19.1.378.174.558 0 .009.008.016.012.024.052.122.11.24.177.356H3.453zm18.54-1.685a1.685 1.685 0 0 1-3.372 0V7.584h3.371v12.64z"/>
        <path fill="url(#b)" d="M11.942 4.29H6.868a.836.836 0 0 0-.845.825c0 .456.378.825.845.825h5.074c.467 0 .846-.37.846-.825a.836.836 0 0 0-.846-.825z"/>
        <path fill="url(#c)" d="M14.426 8.415H4.384a.831.831 0 0 0-.836.825c0 .456.374.825.836.825h10.042c.462 0 .837-.37.837-.825a.831.831 0 0 0-.837-.825zM14.426 11.88H4.384a.831.831 0 0 0-.836.825c0 .456.374.825.836.825h10.042c.462 0 .837-.37.837-.825a.831.831 0 0 0-.837-.825zM14.426 15.18H4.384a.831.831 0 0 0-.836.825c0 .456.374.825.836.825h10.042c.462 0 .837-.37.837-.825a.831.831 0 0 0-.837-.825zM14.426 18.48H4.384a.831.831 0 0 0-.836.825c0 .456.374.825.836.825h10.042c.462 0 .837-.37.837-.825a.83.83 0 0 0-.837-.825z"/>
    </g>
</svg>
